X:1
T:Thou art but young, thou say'st - Wilbye
T:#
%%score 1 2 { 3 | 4 } 5
L:1/8
Q:1/4=120
M:4/4
K:G
V:1 treble nm="Soprano I"
V:2 treble nm="Soprano II"
V:3 treble nm="Alto I" snm="A"
V:4 treble 
V:5 treble-8 nm="Tenor" snm="T"
V:1
"^Thou art but young, thou say'st""^John Wilbye\n (1574-1638)" z8 | z8 | z8 | z8 |[M:4/4] z8 | z8 | %6
w: ||||||
!f! d4 d2 d2 | d2 e2 d4- | d2 c2 B3 c | d2 B2 A4 | G4 z2 B2 | B2 c2 d2 d2 | d4 d4 | z8 | z8 | %15
w: Thou art but|young, thou say'st,|* And love's de-|light thou weigh'st|not, and|love's de- light thou|weigh'st not,|||
!p! d4 d2 d2 | d2 e2 d4- | d2 c2 B3 c | d2 B2 A4 | B4 z4 | z4 d4- | d4 B2 d2 | c2 B2 d4- | d8 | %24
w: Oh! take time|while thou may'st,|* Lest, when thou|would'st, thou may'st|not,|oh!|* take time|while thou may'st,||
 z4 d4 | e2 d2 c2 B2 | A2 G2 F2 G2 | A2 B2 A4 | B8 | z2!f! d2 d2 c2 | B2 G2 A4 | G4 z4 | %32
w: oh!|take time while thou|may'st, lest, when thou|would'st, thou may'st|not.|If love shall|then as- sail|thee,|
 z2 d2 d2 c2 | B2 G2 A4 | G2 d2 d2 d2 | d4 ^c4 | d4 d4 | z2 G2 A2 A2 | d3 d d4- | d4 A4 | z4 G4 | %41
w: if love shall|still as- sail|thee, if love shall|then as-|sail thee,|A dou- ble,|dou- ble an\-|* guish,|a|
 F3 E F2 D2 | F4 G4- | G4!p! F4 | _B8 | A8- | A8 | A4!f! d4 | d2 d2 d2 c2 | c2 c2 c2 B2 | A4 G4 | %51
w: dou- ble, dou- ble|an- guish|* will|tor-|ment||thee, And|thou wilt wish, but|wish- es all will|fail thee.|
 z8 | z8 | z8 ||[M:3/2]!f![Q:1/4=180] c8 c4 | G4 G4 F4 | G8 G4 | %57
w: |||Oh! me|that I were|young a-|
[M:3/2][Q:1/4=180][Q:1/4=180][Q:1/4=180][Q:1/4=180] G12 ||[M:4/4][Q:1/4=120] G4 A2 =F2- | %59
w: gain!|oh! me that|
 FG A2 G4- | G2 G2 G2 G2 | F2 G2 (G2 F2) | G8 | %63
w: * I were young|* a- gain! and|so re- pent *|thee,|
[M:4/4][Q:1/4=120][Q:1/4=120][Q:1/4=120][Q:1/4=120] d4 A3 B | c2 c2 G3 A | B4 B4 | A2 G2 A4 | B8- | %68
w: oh! me that|I were young a-|gain! and|so re- pent|thee.|
 B16 |] %69
w: |
V:2
!f! d4 d2 d2 | d2 e2 d4- | d2 c2 B3 c | d2 B2 A4 |[M:4/4] G8 | z4 G4 | G2 G2 G2 F2 | G4 D4 | z8 | %9
w: Thou art but|young, thou say'st,|* And love's de-|light thou weigh'st|not,|and|love's de- light thou|weigh'st not,||
!p! d4 d2 d2 | d2 e2 d4- | d2 c2 B3 c | d2 B2 A4 | G8 | z4!p! G4 | G2 G2 G2 F2 | G4 D4 | z8 | %18
w: Oh! take time|while thou may'st,|* Lest, when thou|would'st, thou may'st|not,|lest,|when thou would'st, thou|may'st not,||
 z4 d4- | d4 B2 d2 | c2 B2 A4 | z4 G4 | G2 G2 A2 B2 | A2 D2 d4- | d4 B2 d2 | c2 B2 A2 G2 | c6 B2 | %27
w: oh!|* take time|while thou may'st,|lest,|when thou would'st, thou|may'st not, oh!|* take time|when thou may'st, lest,|when thou|
 A2 G4 F2 | G8- | G8 | z2!f! d2 d2 c2 | B2 G2 A4 | G8 | z2 d2 d2 c2 | B2 G2 A4 | G4 z2 G2 | %36
w: would'st, thou may'st|not.||If love shall|then as- sail|thee,|If love shall|then as- sail|thee, A|
 F3 G A2 B2 | c4 c4 | B6 c2 | d8 | d2 d2 d3 c | d2 B2 A4- | A4 _B4 |!p! A8- | A4 G4- | G4 (=F4 | %46
w: dou- ble, dou- ble|an- guish|will tor-|ment|thee, a dou- ble,|dou- ble an\-|* guish|will|* tor\-|* ment|
 E8) | ^F4 z2!f! =B2 | A2 B2 A2 A2 | G2 A2 A2 G2- | G2 F2 G4 | z8 | z8 | z8 ||[M:3/2]!f! e8 e4 | %55
w: |thee, And|thou wilt wish, but|wish- es all will|* fail thee.||||Oh! me|
 d4 c4 c4 | B8 B4 |[M:3/2] B12 ||[M:4/4] z4 d4 | A3 B c2 c2 | G3 A B2 B2 | A2 G2 A4 | B4 z2 G2 | %63
w: that I were|young a-|gain!|oh!|me that I were|young a- gain! and|so re- pent|thee, oh!|
[M:4/4] A2 =F3 G A2 | G6 G2 | G4 G4 | F2 G4 F2 | G8- | G16 |] %69
w: me that I were|young a-|gain! and|so re- pent|thee.||
V:3
 z8 |!f! G4 G2 G2 | G2 A2 G4 | F2 G4 F2 |[M:4/4] G4 z2 B2 | B2 A2 B2 G2 | D4 D4 | z4 D4 | %8
w: |Thou art but|young, thou say'st,|but young, thou|say'st, And|love's de- light thou|weigh'st not,|and|
 B,2 (CD) E2 G2 | F2 D2 z4 |!p! G4 G2 G2 | G2 A2 G2 G2 | F2 G2 G2 F2 | G4 z2!p! B2 | B2 A2 B2 G2 | %15
w: love's de\- * light thou|weigh'st not,|Oh! take time|while thou may'st, oh!|take time while thou|may'st, Lest,|when thou would'st, thou|
 D4 D4 | z4 D4 | B,2 (CD) E2 G2 | F2 D2 z4 | G8 | E2 G2 G2 F2 | G8 | z2 B2 A2 G2 | F2 G2 A4 | %24
w: may'st not,|lest,|when thou * would'st, thou|may'st not,|oh!|take time while thou|may'st,|lest, when thou|would'st, thou may'st|
 B4 z2 B,2 | C2 D2 E4- | E2 D2 C2 D2 | D2 D2 D4 | D8 | z2!f! G2 D2 E2 | D2 B,2 A,4 | B,4 z4 | %32
w: not, lest,|when thou would'st,|* lest, when thou|would'st, thou may'st|not.|If love shall|then as- sail|thee,|
 z2 G2 D2 E2 | D2 B,2 A,4 | B,4 z4 | z8 | D4 F2 F2 | E3 D C4 | D8- | D4 D4 | B,3 A, B,2 G,2 | D8- | %42
w: if love shall|then as- sail|thee,||A dou- ble,|dou- ble an-|guish,|* a|dou- ble, dou- ble|an\-|
 D4 D4 |!p! D8- | D8 | ^C4 (D4- | D4 ^C4) | D4 z2!f! G2 | F2 G2 D2 =F2 | E2 =F2 C2 C2 | D4 D2 G2 | %51
w: * guish|will||tor- ment||thee, And|thou wilt wish, but|wish- es all will|fail thee, and|
 A2 G2 F2 =F2 | G2 =F2 E2 E2 | D4 D4 ||[M:3/2]!f! E8 E4 | G4 C4 C4 | D8 D4 |[M:3/2] D12 || %58
w: thou wilt wish, but|wish- es all will|fail thee.|Oh! me|that I were|young a-|gain!|
[M:4/4] B,2 D2 D2 C2 | A,2 E2 E2 E2- | E2 E2 D4- | D2 D2 D4 | D4 z2 D2- |[M:4/4] D2 A,3 B, C2 | %64
w: oh! me that I|were young a- gain!|* and so|* re- pent|thee, oh!|* me that I|
 C2 G,3 A, B,2- | B,2 C2 D4 | D4 D4 | D8- | D16 |] %69
w: were young a- gain!|* and so|re- pent|thee.||
V:4
 z8 | z8 | z8 |!f! D4 D2 D2 |[M:4/4] D2 E2 D4- | D2 C2 B,3 C | D2 B,2 A,4 | G,2 G2 G2 F2 | G6 G,2 | %9
w: |||Thou art but|young, thou say'st,|* And love's de-|light thou weigh'st|not, and love's de-|light thou|
 D8 | B,8 | z8 | z8 |!p! B,4 B,2 B,2 | B,2 C2 D2 D2 | B,3 C D4- | D2 (CB,) A,4 | G,8 | %18
w: weigh'st|not,|||Oh! take time|while thou may'st, Lest,|when thou would'st,|* thou * may'st|not,|
 (A,2 G,4) F,2 | G,8 | z4 z2 D2 | D2 D2 E2 D2 | G,4 z2 D2 | D2 G2 G2 F2 | G8 | z4 z2 G,2 | %26
w: thou * may'st|not,|oh!|take time while thou|may'st, oh!|take time while thou|may'st,|lest,|
 A,2 B,2 C2 G,2 | F,2 G,2 A,4 | G,8 | z8 |!f! D8 | D2 G2 G2 F2 | G4 G,4 | z8 | z2 D2 D2 D2 | %35
w: when thou would'st, thou|would'st, thou may'st|not.||If|love shall then as-|sail thee,||if love shall|
 G,6 G,2 | A,4 A,4 | z2 E2 E2 F2 | G4 G4 | A8 | G4 z4 | z8 | z8 | z8 | z8 | z2!p! A,2 A,4 | A,8 | %47
w: then as-|sail thee,|A dou- ble,|dou- ble|an-|guish|||||will tor-|ment|
 A,4 z4 | z8 | z8 | z4 z2!f! D2 | D2 D2 D2 C2 | C2 C2 C2 B,2 | A,4 B,4 ||[M:3/2]!f! C8 C4 | %55
w: thee,|||And|thou wilt wish, but|wish- es all will|fail thee.|Oh! me|
 D4 A,4 A,4 | B,8 B,4 |[M:3/2] B,12 ||[M:4/4] z2 D4 A,2- | A,B, C2 C2 G,2- | G,A, B,3 C D2- | %61
w: that I were|young a-|gain!|oh! me|* that I were young|* a- gain! and so|
 D2 B,2 A,4 | G,4 B,4 |[M:4/4] D2 D2 C2 A,2 | E6 E2 | D6 G,2 | D2 B,2 A,4 | G,8- | G,16 |] %69
w: * re- pent|thee, oh!|me that I were|young a-|gain! and|so re- pent|thee.||
V:5
 z8 | z8 | z8 | z8 |[M:4/4][K:treble-8] B4 B2 B2 | B2 c2 d4 | B3 c d4- | d2 (cB) A4 | G4 G4 | %9
w: ||||Thou art but|young, thou say'st,|Love's de- light|* thou * weigh'st|not, and|
 A2 G2 G2 F2 | G4 G4 | z8 |!p! d4 d2 d2 | d2 e2 d4- | d2 c2 B3 c | d2 B2 A4 | G2 g2 g2 f2 | g6 G2 | %18
w: love's de- light thou|weigh'st not,||Oh! take time|while thou may'st,|* Lest, when thou|would'st, thou may'st|not, lest, when thou|would'st, thou|
 d8 | d6 G2 | c2 G2 d3 d | B4 z2 B2 | e2 d2 d4- | d2 B2 A4 | G8 | z8 | z8 | z8 | z8 |!f! G8 | %30
w: may'st|not, oh!|take time while thou|may'st, lest,|when thou would'st,|* thou may'st|not,|||||If|
 G4 F4 | G4 d4 | d4 B4 | z2 d2 d4- | d2 g2 g2 f2 | g4 G4 | z2 d2 d2 d2 | c3 B A4- | A2 G2 G4- | %39
w: love shall|then as-|sail thee,|if love|* shall then as-|sail thee,|A dou- ble,|dou- ble an\-|* guish will|
 G2 G2 F4 | G2 d2 d2 e2 | A2 (Bc) d2 A2 |!p! A4 G4 | A4 A4 | z4 z2 G2 | E4 D4 | E8 | z8 | z8 | z8 | %50
w: * tor- ment|thee, a dou- ble,|dou- ble * an- guish|will tor-|ment thee,|will|tor- ment|thee,||||
 z4!f! B4 | A2 B2 A2 A2 | G2 A2 A2 G2 | (G2 F2) G4 ||[M:3/2]!f! G8 G4 | G4 E4 A4 | D8 G4 | %57
w: And|thou wilt wish, but|wish- es all will|fail * thee.|Oh! me|that I were|young a-|
[M:3/2][K:treble-8] G12 ||[M:4/4] z2 G2 =F3 G | A2 A2 E3 =F | G2 G2 D2 D2 | D8 | D4 z2 G2 | %63
w: gain!|oh! me that|I were young a-|gain! and so re-|pent|thee, oh!|
[M:4/4][K:treble-8] =F3 G A2 A2 | E3 =F G2 G2 | G4 D4 | D8 | D8- | D16 |] %69
w: me that I were|young a- gain! and|so re-|pent|thee.||

